img/stars2.svg

<svg xmlns="http://www.w3.org/2000/svg" width="140" height="37" fill="none"><g clip-path="url(#a)"><path fill="#83B3D3" d="m9 10 2.1 6.5H18l-5.6 4 2.2 6.5L9 23l-5.6 4 2.2-6.5-5.6-4h6.9L9 10Z"/></g><g clip-path="url(#b)"><path fill="#83B3D3" d="m33 10 2.1 6.5H42l-5.6 4 2.2 6.5-5.6-4-5.6 4 2.2-6.5-5.6-4h6.9L33 10Z"/></g><defs><clipPath id="a"><path fill="#fff" d="M0 10h18v17H0z"/></clipPath><clipPath id="b"><path fill="#fff" d="M24 10h18v17H24z"/></clipPath></defs></svg>

<svg width="140" height="37" viewBox="0 0 140 37" fill="none" xmlns="http://www.w3.org/2000/svg">
<g clip-path="url(#clip0_16_226)">
<path d="M9 10L11.1 16.5H18L12.4 20.5L14.6 27L9 23L3.4 27L5.6 20.5L0 16.5H6.9L9 10Z" fill="#83B3D3"/>
</g>
<g clip-path="url(#clip1_16_226)">
<path d="M33 10L35.1 16.5H42L36.4 20.5L38.6 27L33 23L27.4 27L29.6 20.5L24 16.5H30.9L33 10Z" fill="#83B3D3"/>
</g>
<defs>
<clipPath id="clip0_16_226">
<rect width="18" height="17" fill="white" transform="translate(0 10)"/>
</clipPath>
<clipPath id="clip1_16_226">
<rect width="18" height="17" fill="white" transform="translate(24 10)"/>
</clipPath>
</defs>
</svg>
